icon-themes/breeze_svg/cmd/lc_calloutshapes.svg

<svg viewBox="0 0 24 24" xmlns="http://www.w3.org/2000/svg"><path d="m6 4c-1.1079896 0-2 .8920001-2 2v8c0 1.108.8920104 2 2 2h2v4l4-4h6c1.10799 0 2-.892 2-2v-8c0-1.1079999-.89201-2-2-2z" fill="#4d4d4d"/></svg>

<svg xmlns="http://www.w3.org/2000/svg" viewBox="0 0 24 24">
 <path 
     style="fill:#4d4d4d" 
     d="M 6 4 C 4.8920104 4 4 4.8920001 4 6 L 4 14 C 4 15.108 4.8920104 16 6 16 L 8 16 L 8 20 L 12 16 L 18 16 C 19.10799 16 20 15.108 20 14 L 20 6 C 20 4.8920001 19.10799 4 18 4 L 6 4 z "
     />
 </svg>
